<?xml version="1.0" encoding="UTF-8"?>
<map version="1.10" tiledversion="1.12.2" orientation="orthogonal" renderorder="right-down" width="50" height="50" tilewidth="16" tileheight="16" infinite="0" nextlayerid="6" nextobjectid="63">
 <tileset firstgid="1" source="nature.tsx"/>
 <layer id="1" name="background" width="50" height="50">
  <data encoding="csv">
161,161,161,161,161,161,162,202,202,161,162,162,202,161,162,202,162,162,202,202,162,202,161,161,201,202,161,162,162,201,202,202,162,202,202,202,161,162,161,201,202,161,161,162,162,162,162,162,202,202,
201,201,201,201,161,162,202,161,162,162,202,161,162,162,202,162,202,202,161,161,161,161,162,162,162,162,162,202,202,161,201,201,202,162,161,162,162,161,161,162,162,162,162,202,202,202,202,202,162,162,
161,161,161,161,162,202,161,162,202,161,162,162,202,202,202,202,202,161,161,162,162,162,202,162,202,202,202,162,161,201,202,201,201,202,162,202,161,162,162,202,202,202,202,162,161,162,162,162,162,202,
201,201,161,162,161,162,162,202,161,162,202,202,202,202,202,161,162,162,162,202,202,202,161,162,162,162,162,162,162,162,162,162,162,201,202,162,162,202,202,202,161,162,161,162,162,202,202,202,202,162,
161,161,162,161,162,202,202,162,161,162,202,202,161,162,162,162,202,161,162,162,162,162,162,202,202,202,202,202,202,202,202,202,202,201,202,202,202,162,162,162,161,162,162,202,202,202,202,202,201,202,
161,161,162,162,202,162,161,161,162,202,161,162,162,161,162,162,162,162,202,202,202,202,202,202,202,161,161,201,202,201,161,162,162,201,202,162,162,202,161,161,162,202,202,201,201,202,202,161,161,201,
161,162,202,202,202,161,161,161,162,162,162,161,162,162,202,202,202,202,161,201,201,202,202,161,161,161,201,202,161,162,162,162,162,162,162,162,202,161,162,162,202,162,161,201,202,162,162,161,161,201,
162,202,161,161,161,162,161,161,162,161,162,162,202,202,202,202,161,161,161,161,161,162,161,161,161,201,161,162,162,202,202,202,202,202,202,162,161,162,202,202,202,202,201,202,202,202,161,201,161,201,
202,162,161,161,162,161,162,161,162,162,202,202,161,161,161,161,201,201,201,201,201,161,162,201,161,162,162,202,202,202,202,202,202,162,201,202,162,202,202,201,202,201,161,162,162,201,201,161,161,201,
202,161,202,202,202,202,202,161,162,202,202,161,201,201,201,201,202,201,202,201,161,161,162,161,162,202,202,162,202,162,202,161,201,202,162,201,202,161,201,202,161,162,162,202,202,161,201,161,201,202,
162,162,161,162,202,202,161,161,162,161,161,201,202,161,161,201,202,202,202,161,201,161,162,161,162,161,162,202,202,161,161,162,162,201,202,201,202,201,161,162,162,161,162,161,162,162,162,162,162,162,
202,161,162,202,161,162,162,161,162,201,201,202,161,201,201,202,161,161,161,201,161,161,162,162,202,161,162,161,162,161,162,202,161,201,161,201,202,161,162,162,162,162,162,162,202,202,202,202,202,202,
161,162,202,161,162,202,202,161,162,161,201,202,161,161,161,162,201,161,161,162,161,162,162,202,162,161,162,161,162,162,202,161,162,201,201,202,162,162,202,202,202,202,202,202,202,161,162,162,162,202,
162,202,161,162,202,202,201,161,162,161,201,161,201,201,161,161,162,161,162,202,161,162,202,161,162,161,162,162,202,202,161,162,162,161,201,202,202,202,161,161,162,162,161,162,162,162,202,202,202,202,
202,202,161,162,202,201,202,161,161,162,201,201,201,202,201,201,161,162,202,161,162,202,162,201,161,161,162,202,161,162,162,202,161,201,202,202,161,161,162,162,162,162,162,162,162,162,162,161,162,202,
201,161,162,202,161,161,161,201,201,161,161,201,202,161,201,161,161,162,161,162,202,161,161,161,201,161,162,162,162,202,202,161,201,202,201,161,162,162,202,202,202,202,202,202,202,202,202,162,162,162,
161,162,202,161,161,201,201,202,202,161,201,202,162,161,162,162,201,161,162,162,161,162,161,162,161,201,161,162,161,161,161,161,201,161,162,162,202,202,162,162,202,161,201,201,202,202,201,202,202,202,
162,202,201,201,201,202,162,202,161,201,201,202,202,162,202,202,162,201,161,162,161,162,161,162,162,161,201,161,161,161,201,201,161,162,202,202,161,162,202,202,161,201,161,201,202,202,161,201,202,201,
202,201,202,202,202,162,161,161,161,201,201,202,162,202,162,161,161,162,161,162,161,161,161,161,161,201,201,201,161,201,202,201,161,162,161,162,162,202,202,161,201,161,201,202,202,201,201,202,161,201,
202,161,201,202,162,161,161,201,201,202,161,201,202,162,162,162,162,162,201,161,162,201,201,201,201,202,162,161,201,202,161,161,162,202,162,202,202,201,161,161,161,201,202,202,201,202,202,201,201,161,
201,201,202,161,161,201,201,202,161,161,162,201,202,202,202,202,202,202,201,201,161,162,202,202,162,202,161,201,202,162,201,161,162,162,202,161,161,161,161,201,201,202,201,202,201,202,161,201,201,161,
161,161,161,201,201,202,201,161,201,161,162,162,202,161,201,201,201,202,202,202,201,161,162,162,161,161,201,202,162,161,162,161,162,161,162,161,161,161,201,202,202,161,201,202,202,161,161,162,161,162,
201,201,201,202,161,161,161,201,161,162,202,202,161,201,202,161,162,202,162,162,202,161,162,161,201,201,202,162,161,162,202,161,162,201,161,161,161,162,202,202,161,201,202,202,202,201,161,162,161,162,
161,162,162,162,161,201,201,161,162,202,161,161,201,202,162,201,161,162,202,202,162,201,161,161,162,161,161,161,162,202,161,162,202,161,201,201,201,161,161,162,201,202,201,202,201,161,161,161,162,202,
162,162,202,202,201,201,161,162,202,162,161,201,202,162,202,161,201,161,162,201,202,161,201,201,161,162,161,162,161,161,161,162,161,201,201,202,202,201,201,161,161,162,202,202,201,161,161,162,202,162,
162,202,201,202,202,161,162,202,162,161,201,202,202,202,162,162,202,201,161,161,161,201,202,162,201,161,162,161,201,201,161,162,201,202,161,201,202,162,161,201,201,161,161,162,202,161,162,202,162,202,
162,202,201,161,161,162,202,161,161,162,201,202,161,162,202,202,161,161,161,161,161,161,161,161,162,201,161,162,202,201,161,162,202,161,201,202,202,161,201,202,201,201,161,161,162,161,162,202,202,202,
162,161,201,201,161,162,161,161,162,202,201,202,162,202,161,161,201,201,201,201,201,201,201,201,161,161,162,161,161,161,162,202,161,201,202,202,161,201,202,162,202,161,201,201,161,162,202,202,201,202,
162,201,202,161,162,202,161,162,202,161,201,202,202,162,201,201,202,201,202,201,161,201,161,162,201,201,161,161,162,161,162,161,201,202,201,161,201,202,161,161,161,161,162,161,161,162,161,162,202,202,
161,162,161,161,162,161,162,202,161,162,201,202,202,161,201,202,201,202,202,161,162,202,201,161,162,202,201,201,161,162,162,161,162,202,161,201,202,161,201,161,161,201,161,161,161,162,201,161,162,161,
161,161,201,161,162,162,202,202,161,162,201,202,162,201,202,202,202,201,202,161,162,202,162,201,161,162,201,161,201,161,162,201,161,162,162,202,201,201,161,161,201,202,161,161,162,202,161,201,161,161,
161,201,161,162,202,202,202,161,162,202,202,201,161,201,202,202,201,202,161,161,162,202,161,161,162,162,162,162,161,201,161,161,162,161,161,162,202,161,161,201,161,161,161,161,162,201,201,201,201,201,
201,201,161,162,162,161,161,161,162,161,161,161,201,202,202,162,162,162,162,162,162,162,162,162,202,202,202,162,161,162,201,201,161,162,201,161,161,161,162,161,161,161,161,162,202,202,201,202,161,161,
162,161,162,202,202,201,201,161,162,201,201,201,202,201,202,202,202,202,202,202,202,202,202,202,161,201,202,161,162,202,201,201,201,161,162,201,201,201,161,161,161,161,161,161,161,161,161,161,201,201,
202,161,162,162,161,162,161,162,202,161,161,201,202,201,202,161,161,161,162,201,161,162,161,162,201,202,161,162,202,201,202,202,161,201,161,162,202,202,201,201,201,201,201,201,201,201,201,201,202,202,
161,161,162,202,162,202,161,162,201,201,201,202,162,201,202,161,161,161,162,162,201,161,162,162,201,161,162,202,201,202,201,202,162,202,201,202,161,201,202,161,162,202,161,201,201,202,202,162,162,161,
201,161,162,202,202,161,162,202,202,161,201,202,162,201,202,161,162,161,161,162,162,201,161,162,201,161,162,202,201,201,202,162,202,202,161,161,162,161,162,162,202,201,201,202,162,202,202,161,161,201,
161,162,202,202,161,161,162,201,161,162,162,201,202,201,202,162,161,162,162,202,202,202,201,161,162,162,202,201,202,162,161,161,161,161,162,162,161,162,202,202,202,162,162,162,202,202,161,201,201,202,
161,162,202,201,161,162,202,161,162,202,202,201,202,162,201,202,162,202,202,161,162,162,162,162,202,202,162,161,161,161,201,201,161,162,202,161,162,202,161,201,201,202,202,202,161,161,201,202,201,161,
161,162,201,202,161,162,161,162,202,162,161,201,201,202,162,162,162,162,162,162,202,202,202,202,161,201,161,161,161,161,162,161,162,161,162,162,202,161,201,202,162,201,202,161,201,201,202,161,161,201,
161,162,161,161,162,202,162,202,162,161,201,161,201,202,202,202,202,202,202,202,161,201,202,161,201,161,201,201,201,201,161,161,162,162,202,202,161,161,161,161,161,161,161,201,202,161,161,201,201,202,
161,162,201,161,162,162,202,162,161,201,202,161,161,161,161,161,161,201,202,162,161,162,162,162,162,201,201,161,161,161,162,162,202,202,201,201,201,201,201,201,201,201,201,202,161,161,201,202,201,201,
201,161,162,161,162,202,162,161,201,202,162,201,201,201,201,201,201,201,202,202,162,162,162,162,202,161,162,162,162,162,202,202,162,161,161,201,201,201,201,201,201,161,161,161,201,201,202,202,161,201,
162,161,162,162,202,161,161,201,202,161,161,161,161,161,161,161,161,161,161,201,202,202,202,202,162,162,202,202,202,202,201,201,161,161,161,161,162,162,162,162,161,161,201,201,202,162,162,161,201,202,
202,201,161,162,161,161,161,161,161,201,201,201,201,201,201,201,201,201,201,201,201,201,201,201,202,202,162,202,202,201,161,161,201,201,201,201,161,161,161,161,201,201,202,161,201,202,161,201,202,202,
201,201,201,161,162,201,201,201,201,202,162,162,162,162,161,201,201,201,201,201,201,201,201,202,161,162,162,162,161,162,162,201,202,162,162,202,161,161,201,201,202,201,201,201,201,161,201,202,201,202,
201,202,161,201,161,162,161,201,202,202,202,202,202,202,201,202,161,161,161,201,201,161,162,162,161,161,161,161,161,161,161,201,202,161,161,161,201,201,202,202,202,202,161,161,161,201,202,202,201,202,
202,202,201,201,201,161,161,162,201,201,201,201,201,202,161,161,161,201,201,202,161,162,202,161,162,201,201,161,161,161,161,161,161,201,201,201,202,201,202,162,162,162,161,201,201,202,202,161,201,202,
201,202,201,202,161,201,201,161,161,161,161,162,161,161,201,201,201,202,162,161,162,202,161,162,161,161,161,201,161,161,161,201,201,202,201,201,202,161,161,161,161,161,201,202,201,202,161,201,201,202,
201,202,162,201,201,161,161,201,201,201,201,161,161,161,161,161,161,161,161,161,161,161,161,161,161,161,161,161,201,201,201,202,201,201,202,201,201,201,201,161,161,201,202,202,162,201,201,202,202,202
</data>
 </layer>
 <layer id="2" name="walls" width="50" height="50">
  <data encoding="csv">
167,168,167,168,167,168,167,168,167,168,167,168,167,168,167,168,167,168,167,168,167,168,167,168,167,168,167,168,167,168,167,168,167,168,167,168,167,168,167,168,167,168,167,168,167,168,167,168,167,168,
207,208,207,208,207,208,207,208,207,208,207,208,207,208,207,208,207,208,207,208,207,208,207,208,207,208,207,208,207,208,207,208,207,208,207,208,207,208,207,208,207,208,207,208,207,208,207,208,207,208,
167,168,0,0,0,0,0,0,0,0,0,0,0,0,0,0,0,0,0,0,0,0,0,0,0,0,0,0,0,0,0,0,0,0,0,0,0,0,0,0,0,0,0,0,0,0,0,0,167,168,
207,208,0,0,0,0,0,0,0,0,0,0,0,0,0,0,0,0,0,0,0,0,0,0,0,0,0,0,0,0,0,0,0,0,0,0,0,0,0,0,0,0,0,0,0,0,0,0,207,208,
167,168,0,0,0,0,0,0,0,0,0,0,0,0,0,0,0,0,0,0,0,0,0,0,0,0,0,0,0,0,0,0,0,0,0,0,0,0,0,0,0,0,0,0,0,0,0,0,167,168,
207,208,0,0,0,0,0,0,0,0,0,0,0,0,0,0,0,0,0,0,0,0,0,0,0,0,0,0,0,0,0,0,0,0,0,0,0,0,0,0,0,0,0,0,0,0,0,0,207,208,
167,168,0,0,0,0,0,0,0,0,0,0,0,0,0,0,0,0,0,0,0,0,0,0,0,0,0,0,0,0,0,0,0,0,0,0,0,0,0,0,0,0,0,0,0,0,0,0,167,168,
207,208,0,0,0,0,0,0,0,0,0,0,0,0,0,0,0,0,0,0,0,0,0,0,0,0,0,0,0,0,0,0,0,0,0,0,0,0,0,0,0,0,0,0,0,0,0,0,207,208,
167,168,0,0,0,0,0,0,0,0,0,0,0,0,0,0,0,0,0,0,0,0,0,0,0,0,0,0,0,0,0,0,0,0,0,0,0,0,0,0,0,0,0,0,0,0,0,0,167,168,
207,208,0,0,0,0,0,0,0,0,0,0,0,0,0,0,0,0,0,0,0,0,0,0,0,0,0,0,0,0,0,0,0,0,0,0,0,0,0,0,0,0,0,0,0,0,0,0,207,208,
167,168,0,0,0,0,0,0,0,0,0,0,0,0,0,0,0,0,0,0,0,0,0,0,0,0,0,0,0,0,0,0,0,0,0,0,0,0,0,0,0,0,0,0,0,0,0,0,167,168,
207,208,0,0,0,0,0,0,0,0,0,0,0,0,0,0,0,0,0,0,0,0,0,0,0,0,0,0,0,0,0,0,0,0,0,0,0,0,0,0,0,0,0,0,0,0,0,0,207,208,
167,168,0,0,0,0,0,0,0,0,0,0,0,0,0,0,0,0,0,0,0,0,0,0,0,0,0,0,0,0,0,0,0,0,0,0,0,0,0,0,0,0,0,0,0,0,0,0,167,168,
207,208,0,0,0,0,0,0,0,0,0,0,0,0,0,0,0,0,0,0,0,0,0,0,0,0,0,0,0,0,0,0,0,0,0,0,0,0,0,0,0,0,0,0,0,0,0,0,207,208,
167,168,0,0,0,0,0,0,0,0,0,0,0,0,0,0,0,0,0,0,0,0,0,0,0,0,0,0,0,0,0,0,0,0,0,0,0,0,0,0,0,0,0,0,0,0,0,0,167,168,
207,208,0,0,0,0,0,0,0,0,0,0,0,0,0,0,0,0,0,0,0,0,0,0,0,0,0,0,0,0,0,0,0,0,0,0,0,0,0,0,0,0,0,0,0,0,0,0,207,208,
167,168,0,0,0,0,0,0,0,0,0,0,0,0,0,0,0,0,0,0,0,0,0,0,0,0,0,0,0,0,0,0,0,0,0,0,0,0,0,0,0,0,0,0,0,0,0,0,167,168,
207,208,0,0,0,0,0,0,0,0,0,0,0,0,0,0,0,0,0,0,0,0,0,0,0,0,0,0,0,0,0,0,0,0,0,0,0,0,0,0,0,0,0,0,0,0,0,0,207,208,
167,168,0,0,0,0,0,0,0,0,0,0,0,0,0,0,0,0,0,0,0,0,0,0,0,0,0,0,0,0,0,0,0,0,0,0,0,0,0,0,0,0,0,0,0,0,0,0,167,168,
207,208,0,0,0,0,0,0,0,0,0,0,0,0,0,0,0,0,0,0,0,0,0,0,0,0,0,0,0,0,0,0,0,0,0,0,0,0,0,0,0,0,0,0,0,0,0,0,207,208,
167,168,0,0,0,0,0,0,0,0,0,0,0,0,0,0,0,0,0,0,0,0,0,0,0,0,0,0,0,0,0,0,0,0,0,0,0,0,0,0,0,0,0,0,0,0,0,0,167,168,
207,208,0,0,0,0,0,0,0,0,0,0,0,0,0,0,0,0,0,0,0,0,0,0,0,0,0,0,0,0,0,0,0,0,0,0,0,0,0,0,0,0,0,0,0,0,0,0,207,208,
167,168,0,0,0,0,0,0,0,0,0,0,0,0,0,0,0,0,0,0,0,0,0,0,0,0,0,0,0,0,0,0,0,0,0,0,0,0,0,0,0,0,0,0,0,0,0,0,167,168,
207,208,0,0,0,0,0,0,0,0,0,0,0,0,0,0,0,0,0,0,0,0,0,0,0,0,0,0,0,0,0,0,0,0,0,0,0,0,0,0,0,0,0,0,0,0,0,0,207,208,
167,168,0,0,0,0,0,0,0,0,0,0,0,0,0,0,0,0,0,0,0,0,0,0,0,0,0,0,0,0,0,0,0,0,0,0,0,0,0,0,0,0,0,0,0,0,0,0,167,168,
207,208,0,0,0,0,0,0,0,0,0,0,0,0,0,0,0,0,0,0,0,0,0,0,0,0,0,0,0,0,0,0,0,0,0,0,0,0,0,0,0,0,0,0,0,0,0,0,207,208,
167,168,0,0,0,0,0,0,0,0,0,0,0,0,0,0,0,0,0,0,0,0,0,0,0,0,0,0,0,0,0,0,0,0,0,0,0,0,0,0,0,0,0,0,0,0,0,0,167,168,
207,208,0,0,0,0,0,0,0,0,0,0,0,0,0,0,0,0,0,0,0,0,0,0,0,0,0,0,0,0,0,0,0,0,0,0,0,0,0,0,0,0,0,0,0,0,0,0,207,208,
167,168,0,0,0,0,0,0,0,0,0,0,0,0,0,0,0,0,0,0,0,0,0,0,0,0,0,0,0,0,0,0,0,0,0,0,0,0,0,0,0,0,0,0,0,0,0,0,167,168,
207,208,0,0,0,0,0,0,0,0,0,0,0,0,0,0,0,0,0,0,0,0,0,0,0,0,0,0,0,0,0,0,0,0,0,0,0,0,0,0,0,0,0,0,0,0,0,0,207,208,
167,168,0,0,0,0,0,0,0,0,0,0,0,0,0,0,0,0,0,0,0,0,0,0,0,0,0,0,0,0,0,0,0,0,0,0,0,0,0,0,0,0,0,0,0,0,0,0,167,168,
207,208,0,0,0,0,0,0,0,0,0,0,0,0,0,0,0,0,0,0,0,0,0,0,0,0,0,0,0,0,0,0,0,0,0,0,0,0,0,0,0,0,0,0,0,0,0,0,207,208,
167,168,0,0,0,0,0,0,0,0,0,0,0,0,0,0,0,0,0,0,0,0,0,0,0,0,0,0,0,0,0,0,0,0,0,0,0,0,0,0,0,0,0,0,0,0,0,0,167,168,
207,208,0,0,0,0,0,0,0,0,0,0,0,0,0,0,0,0,0,0,0,0,0,0,0,0,0,0,0,0,0,0,0,0,0,0,0,0,0,0,0,0,0,0,0,0,0,0,207,208,
167,168,0,0,0,0,0,0,0,0,0,0,0,0,0,0,0,0,0,0,0,0,0,0,0,0,0,0,0,0,0,0,0,0,0,0,0,0,0,0,0,0,0,0,0,0,0,0,167,168,
207,208,0,0,0,0,0,0,0,0,0,0,0,0,0,0,0,0,0,0,0,0,0,0,0,0,0,0,0,0,0,0,0,0,0,0,0,0,0,0,0,0,0,0,0,0,0,0,207,208,
167,168,0,0,0,0,0,0,0,0,0,0,0,0,0,0,0,0,0,0,0,0,0,0,0,0,0,0,0,0,0,0,0,0,0,0,0,0,0,0,0,0,0,0,0,0,0,0,167,168,
207,208,0,0,0,0,0,0,0,0,0,0,0,0,0,0,0,0,0,0,0,0,0,0,0,0,0,0,0,0,0,0,0,0,0,0,0,0,0,0,0,0,0,0,0,0,0,0,207,208,
167,168,0,0,0,0,0,0,0,0,0,0,0,0,0,0,0,0,0,0,0,0,0,0,0,0,0,0,0,0,0,0,0,0,0,0,0,0,0,0,0,0,0,0,0,0,0,0,167,168,
207,208,0,0,0,0,0,0,0,0,0,0,0,0,0,0,0,0,0,0,0,0,0,0,0,0,0,0,0,0,0,0,0,0,0,0,0,0,0,0,0,0,0,0,0,0,0,0,207,208,
167,168,0,0,0,0,0,0,0,0,0,0,0,0,0,0,0,0,0,0,0,0,0,0,0,0,0,0,0,0,0,0,0,0,0,0,0,0,0,0,0,0,0,0,0,0,0,0,167,168,
207,208,0,0,0,0,0,0,0,0,0,0,0,0,0,0,0,0,0,0,0,0,0,0,0,0,0,0,0,0,0,0,0,0,0,0,0,0,0,0,0,0,0,0,0,0,0,0,207,208,
167,168,0,0,0,0,0,0,0,0,0,0,0,0,0,0,0,0,0,0,0,0,0,0,0,0,0,0,0,0,0,0,0,0,0,0,0,0,0,0,0,0,0,0,0,0,0,0,167,168,
207,208,0,0,0,0,0,0,0,0,0,0,0,0,0,0,0,0,0,0,0,0,0,0,0,0,0,0,0,0,0,0,0,0,0,0,0,0,0,0,0,0,0,0,0,0,0,0,207,208,
167,168,0,0,0,0,0,0,0,0,0,0,0,0,0,0,0,0,0,0,0,0,0,0,0,0,0,0,0,0,0,0,0,0,0,0,0,0,0,0,0,0,0,0,0,0,0,0,167,168,
207,208,0,0,0,0,0,0,0,0,0,0,0,0,0,0,0,0,0,0,0,0,0,0,0,0,0,0,0,0,0,0,0,0,0,0,0,0,0,0,0,0,0,0,0,0,0,0,207,208,
167,168,0,0,0,0,0,0,0,0,0,0,0,0,0,0,0,0,0,0,0,0,0,0,0,0,0,0,0,0,0,0,0,0,0,0,0,0,0,0,0,0,0,0,0,0,0,0,167,168,
207,208,0,0,0,0,0,0,0,0,0,0,0,0,0,0,0,0,0,0,0,0,0,0,0,0,0,0,0,0,0,0,0,0,0,0,0,0,0,0,0,0,0,0,0,0,0,0,207,208,
167,168,167,168,167,168,167,168,167,168,167,168,167,168,167,168,167,168,167,168,167,168,167,168,167,168,167,168,167,168,167,168,167,168,167,168,167,168,167,168,167,168,167,168,167,168,167,168,167,168,
207,208,207,208,207,208,207,208,207,208,207,208,207,208,207,208,207,208,207,208,207,208,207,208,207,208,207,208,207,208,207,208,207,208,207,208,207,208,207,208,207,208,207,208,207,208,207,208,207,208
</data>
 </layer>
 <layer id="3" name="water" width="50" height="50">
  <data encoding="csv">
0,0,0,0,0,0,0,0,0,0,0,0,0,0,0,0,0,0,0,0,0,0,0,0,0,0,0,0,0,0,0,0,0,0,0,0,0,0,0,0,0,0,0,0,0,0,0,0,0,0,
0,0,0,0,0,0,0,0,0,0,0,0,0,0,0,0,0,0,0,0,0,0,0,0,0,0,0,0,0,0,0,0,0,0,0,0,0,0,0,0,0,0,0,0,0,0,0,0,0,0,
0,0,0,0,0,0,0,0,0,0,0,0,0,0,0,0,0,0,0,0,0,0,0,0,0,0,0,0,0,0,0,0,0,0,0,0,0,0,0,0,0,0,0,0,0,0,0,0,0,0,
0,0,0,0,0,0,0,0,0,0,0,0,0,0,0,0,0,0,0,0,0,0,0,0,0,0,0,0,0,0,0,0,0,0,0,0,0,0,0,0,0,0,0,0,0,0,0,0,0,0,
0,0,413,414,0,413,414,259,260,0,0,0,0,0,0,0,0,0,0,0,0,0,0,0,0,0,0,0,0,0,0,0,0,0,0,0,0,0,0,0,0,0,0,0,0,0,0,0,0,0,
453,453,453,454,453,453,454,299,300,260,0,0,0,0,0,0,0,0,0,0,0,0,0,0,0,0,0,0,0,0,0,0,0,0,0,0,0,0,0,0,0,0,0,0,0,0,0,0,0,0,
253,254,253,254,256,164,204,451,299,300,260,0,0,0,0,0,0,0,0,0,0,0,0,0,0,0,0,0,0,0,0,0,0,0,0,0,0,0,0,0,0,0,0,0,0,0,0,0,0,0,
0,0,202,337,338,253,256,163,451,299,300,260,0,0,0,0,0,0,0,0,0,0,0,0,0,0,0,0,0,0,0,0,0,0,0,0,0,0,0,0,0,0,0,0,0,0,0,0,0,0,
0,0,202,377,378,337,338,253,256,451,299,300,259,260,0,0,0,0,0,0,0,0,0,0,0,0,0,0,0,0,0,0,0,0,0,0,0,0,0,0,0,0,0,0,0,0,0,0,0,0,
0,0,202,202,202,377,378,337,338,256,451,453,299,300,260,0,0,0,0,0,0,0,0,0,0,0,0,0,0,0,0,0,0,0,0,0,0,0,0,0,0,0,0,0,0,0,0,0,0,0,
0,0,0,0,0,0,0,377,337,338,256,163,451,299,300,259,260,0,0,0,0,0,0,0,0,0,0,0,0,0,0,0,0,0,0,0,0,0,0,0,0,0,0,0,0,0,0,0,0,0,
0,0,0,0,0,0,0,0,377,337,338,256,164,451,453,299,414,259,260,0,0,0,0,0,0,0,0,0,0,0,0,0,0,0,0,0,0,0,0,0,0,0,0,0,0,0,0,0,0,0,
0,0,0,0,0,0,0,0,0,377,335,336,164,203,204,451,454,299,300,0,0,0,0,0,0,0,0,0,0,0,0,0,0,0,0,0,0,0,0,0,0,0,0,0,0,0,0,0,0,0,
0,0,0,0,0,0,0,0,0,0,375,376,163,163,164,204,204,371,372,260,0,0,0,0,0,0,0,0,0,0,0,0,0,0,0,0,0,0,0,0,0,0,0,0,0,0,0,0,0,0,
0,0,0,0,0,0,0,0,0,0,337,338,254,256,163,163,164,451,299,300,260,0,0,0,0,0,0,0,0,0,0,0,0,0,0,0,0,0,0,0,0,0,0,0,0,0,0,0,0,0,
0,0,0,0,0,0,0,0,0,0,377,378,294,338,254,256,163,164,451,299,413,414,259,260,0,0,0,0,0,0,0,0,0,0,0,0,0,0,0,0,0,0,0,0,0,0,0,0,0,0,
0,0,0,0,0,0,0,0,0,0,0,0,377,378,294,338,256,163,164,451,453,454,299,300,414,259,260,0,0,257,258,0,0,0,0,0,0,259,260,0,0,0,0,0,0,0,0,0,0,0,
0,0,0,0,0,0,0,0,0,0,0,0,0,0,377,337,338,254,256,204,164,164,451,453,454,299,259,260,258,297,298,455,455,455,455,455,455,299,300,260,0,0,0,0,0,0,0,0,0,0,
0,0,0,0,0,0,0,0,0,0,0,0,0,0,0,377,378,294,338,254,254,255,256,204,204,451,299,300,298,455,456,203,203,203,203,163,203,451,299,300,259,260,0,0,0,0,0,0,0,0,
0,0,0,0,0,0,0,0,0,0,0,0,0,0,0,0,0,377,378,294,294,295,338,256,204,203,451,455,456,251,253,254,254,254,254,254,252,256,451,455,299,259,260,0,0,0,0,0,0,0,
0,0,0,0,0,0,0,0,0,0,0,0,0,0,0,0,0,0,0,0,0,377,335,336,204,163,164,164,164,331,293,294,294,294,294,294,337,338,256,204,451,299,300,0,0,0,0,0,0,0,
0,0,0,0,0,0,0,0,0,0,0,0,0,0,0,257,258,413,414,414,414,414,298,456,204,164,164,204,251,339,340,0,0,0,0,0,377,378,376,204,204,331,332,0,0,0,0,0,0,0,
0,0,0,0,0,0,0,0,0,0,0,0,0,0,257,297,298,453,454,454,454,454,456,203,204,164,204,251,339,340,380,0,0,0,0,0,0,337,338,256,204,371,372,260,0,0,0,0,0,0,
0,0,0,0,0,0,0,0,0,0,0,0,257,258,297,298,456,163,164,251,253,254,254,254,253,253,254,339,340,380,0,0,0,0,0,0,0,377,378,338,256,451,299,259,260,0,0,0,0,0,
0,0,0,0,0,0,0,0,257,258,413,413,414,298,454,456,164,164,251,339,293,294,294,294,0,293,294,379,380,0,0,0,0,0,0,0,0,0,377,378,336,204,451,299,259,260,0,0,0,0,
0,0,0,0,0,0,0,257,297,298,453,453,454,456,204,164,164,251,339,340,380,0,0,0,0,0,0,0,0,0,0,0,0,0,0,0,0,0,0,337,338,256,204,451,299,259,260,0,0,0,
0,0,0,0,0,0,257,297,298,456,164,164,203,203,204,251,253,339,340,380,0,0,0,0,0,0,0,0,0,0,0,0,0,0,0,0,0,0,0,377,337,338,256,204,451,299,259,260,0,0,
0,0,0,0,0,257,297,298,456,164,164,251,253,253,253,339,340,379,380,0,0,0,0,0,0,0,0,0,0,0,0,0,0,0,0,0,0,0,0,0,377,378,338,256,204,451,299,259,0,0,
0,0,0,0,0,297,298,456,164,204,251,339,340,0,0,379,380,0,0,0,0,0,0,0,0,0,0,0,0,0,0,0,0,0,0,0,0,0,0,0,0,377,378,338,256,204,451,299,0,0,
0,0,0,257,258,375,376,164,204,251,339,340,380,0,0,0,0,0,0,0,0,0,0,0,0,0,0,0,0,0,0,0,0,0,0,0,0,0,0,0,0,0,377,378,338,256,204,451,452,452,
0,0,0,297,298,453,456,164,251,339,340,380,0,0,0,0,0,0,0,0,0,0,0,0,0,0,0,0,0,0,0,0,0,0,0,0,0,0,0,0,0,0,0,377,378,338,256,204,204,164,
0,0,0,0,376,163,163,164,339,340,380,0,0,0,0,0,0,0,0,0,0,0,0,0,0,0,0,0,0,0,0,0,0,0,0,0,0,0,0,0,0,0,0,0,377,378,338,256,204,204,
0,0,258,0,376,203,251,339,340,380,0,0,0,0,0,0,0,0,0,0,0,0,0,0,0,0,0,0,0,0,0,0,0,0,0,0,0,0,0,0,0,0,0,0,0,377,378,338,252,252,
0,0,298,453,456,203,291,292,380,0,0,0,0,0,0,0,0,0,0,0,0,0,0,0,0,0,0,0,0,0,0,0,0,0,0,0,0,0,0,0,0,0,0,0,0,0,377,378,0,0,
163,451,456,164,204,251,339,340,0,0,0,0,0,0,0,0,0,0,0,0,0,0,0,0,0,0,0,0,0,0,0,0,0,0,0,0,0,0,0,0,0,0,0,0,0,0,0,0,0,0,
203,204,164,251,253,339,340,380,0,0,0,0,0,0,0,0,0,0,0,0,0,0,0,0,0,0,0,0,0,0,0,0,0,0,0,0,0,0,0,0,0,0,0,0,0,0,0,0,0,0,
204,164,251,339,340,379,380,0,0,0,0,0,0,0,0,0,0,0,0,0,0,0,0,0,0,0,0,0,0,0,0,0,0,0,0,0,0,0,0,0,0,0,0,0,0,0,0,0,0,0,
204,251,339,340,380,0,0,0,0,0,0,0,0,0,0,0,0,0,0,0,0,0,0,0,0,0,0,0,0,0,0,0,0,0,0,0,0,0,0,0,0,0,0,0,0,0,0,0,0,0,
0,0,379,380,0,0,0,0,0,0,0,0,0,0,0,0,0,0,0,0,0,0,0,0,0,0,0,0,0,0,0,0,0,0,0,0,0,0,0,0,0,0,0,0,0,0,0,0,0,0,
0,0,0,0,0,0,0,0,0,0,0,0,0,0,0,0,0,0,0,0,0,0,0,0,0,0,0,0,0,0,0,0,0,0,0,0,0,0,0,0,0,0,0,0,0,0,0,0,0,0,
0,0,0,0,0,0,0,0,0,0,0,0,0,0,0,0,0,0,0,0,0,0,0,0,0,0,0,0,0,0,0,0,0,0,0,0,0,0,0,0,0,0,0,0,0,0,0,0,0,0,
0,0,0,0,0,0,0,0,0,0,0,0,0,0,0,0,0,0,0,0,0,0,0,0,0,0,0,0,0,0,0,0,0,0,0,0,0,0,0,0,0,0,0,0,0,0,0,0,0,0,
0,0,0,0,0,0,0,0,0,0,0,0,0,0,0,0,0,0,0,0,0,0,0,0,0,0,0,0,0,0,0,0,0,0,0,0,0,0,0,0,0,0,0,0,0,0,0,0,0,0,
0,0,0,0,0,0,0,0,0,0,0,0,0,0,0,0,0,0,0,0,0,0,0,0,0,0,0,0,0,0,0,0,0,0,0,0,0,0,0,0,0,0,0,0,0,0,0,0,0,0,
0,0,0,0,0,0,0,0,0,0,0,0,0,0,0,0,0,0,0,0,0,0,0,0,0,0,0,0,0,0,0,0,0,0,0,0,0,0,0,0,0,0,0,0,0,0,0,0,0,0,
0,0,0,0,0,0,0,0,0,0,0,0,0,0,0,0,0,0,0,0,0,0,0,0,0,0,0,0,0,0,0,0,0,0,0,0,0,0,0,0,0,0,0,0,0,0,0,0,0,0,
0,0,0,0,0,0,0,0,0,0,0,0,0,0,0,0,0,0,0,0,0,0,0,0,0,0,0,0,0,0,0,0,0,0,0,0,0,0,0,0,0,0,0,0,0,0,0,0,0,0,
0,0,0,0,0,0,0,0,0,0,0,0,0,0,0,0,0,0,0,0,0,0,0,0,0,0,0,0,0,0,0,0,0,0,0,0,0,0,0,0,0,0,0,0,0,0,0,0,0,0,
0,0,0,0,0,0,0,0,0,0,0,0,0,0,0,0,0,0,0,0,0,0,0,0,0,0,0,0,0,0,0,0,0,0,0,0,0,0,0,0,0,0,0,0,0,0,0,0,0,0,
0,0,0,0,0,0,0,0,0,0,0,0,0,0,0,0,0,0,0,0,0,0,0,0,0,0,0,0,0,0,0,0,0,0,0,0,0,0,0,0,0,0,0,0,0,0,0,0,0,0
</data>
 </layer>
 <layer id="4" name="path" width="50" height="50">
  <data encoding="csv">
0,0,0,0,0,0,0,0,0,0,0,0,0,0,0,0,0,0,0,0,0,0,0,0,0,0,0,0,0,0,0,0,0,0,0,0,0,0,0,0,0,0,0,0,0,0,0,0,0,0,
0,0,0,0,0,0,0,0,0,0,0,0,0,0,0,0,0,0,0,0,0,0,0,0,0,0,0,0,0,0,0,0,0,0,0,0,0,0,0,0,0,0,0,0,0,0,0,0,0,0,
0,0,0,0,0,0,0,0,0,0,0,0,0,0,0,0,0,0,0,0,0,0,0,0,0,0,0,0,0,0,0,0,0,0,0,0,0,0,0,0,0,0,0,0,0,0,0,0,0,0,
0,0,0,0,0,0,0,0,0,0,0,0,0,323,323,324,324,0,0,0,0,0,0,0,0,0,0,0,0,0,0,0,0,0,0,0,0,0,0,0,0,247,248,404,249,250,0,0,0,0,
0,0,0,0,0,0,0,0,0,0,0,0,0,323,323,323,324,0,0,0,0,0,0,0,0,0,0,0,0,0,0,0,0,0,0,0,0,0,0,0,0,325,326,444,321,322,250,0,0,0,
0,0,0,0,0,0,0,0,0,0,403,403,404,404,404,404,404,250,0,0,0,0,0,0,0,0,0,0,0,0,0,0,0,0,0,0,0,0,403,404,404,405,406,574,614,289,290,0,0,0,
0,0,0,0,0,0,0,0,0,405,443,443,444,444,444,444,401,402,403,403,404,250,247,403,404,404,250,0,0,0,0,0,0,0,0,0,0,405,443,444,445,445,446,614,614,321,322,0,0,0,
0,0,0,0,0,0,0,261,429,445,446,241,242,243,243,244,441,442,443,443,444,402,405,443,444,401,402,248,248,249,250,0,0,0,0,247,405,445,446,614,614,573,573,573,574,361,362,0,0,0,
0,0,0,0,0,337,338,349,302,613,267,281,282,283,283,284,285,243,244,245,441,442,445,446,573,441,442,288,288,401,402,403,404,403,403,405,445,446,613,613,573,613,613,573,573,321,322,0,0,0,
0,0,0,0,0,377,405,406,613,267,307,308,0,0,0,0,367,283,284,285,286,246,613,241,242,243,244,245,246,441,442,443,444,443,443,445,446,241,242,243,244,245,246,573,241,242,0,0,0,0,
0,0,0,0,0,325,445,446,241,242,308,466,0,0,0,0,0,0,0,0,285,243,243,244,282,283,284,285,243,244,245,246,573,573,574,206,206,281,282,283,284,285,286,243,281,282,0,0,0,0,
0,0,0,0,0,365,366,241,242,282,0,0,0,0,0,0,0,0,0,0,367,283,283,284,370,0,0,367,283,284,285,243,245,246,241,242,281,282,0,0,323,367,284,283,284,0,0,0,0,0,
0,0,0,0,247,405,406,281,282,370,0,0,0,0,0,0,543,0,0,0,0,0,0,0,0,0,0,0,0,0,367,283,285,286,281,282,284,0,0,0,363,364,0,0,0,0,0,0,0,0,
0,0,0,0,325,445,446,321,322,0,0,0,0,0,0,0,0,0,0,0,0,0,0,0,0,0,0,0,0,0,0,0,365,366,321,322,0,0,0,0,0,0,0,0,0,0,0,0,0,0,
0,0,0,0,365,366,573,321,322,0,0,0,0,0,0,0,0,0,0,0,0,0,0,0,0,0,0,0,0,0,0,0,365,366,321,322,0,0,0,0,0,0,0,0,0,0,0,0,0,0,
0,0,0,0,365,366,241,242,322,0,0,0,0,0,0,0,0,0,0,0,0,0,0,0,0,0,0,0,0,0,0,0,365,366,321,322,0,0,0,0,0,0,0,0,0,0,0,0,0,0,
0,0,0,247,405,406,281,282,0,0,0,0,0,0,0,0,0,0,0,0,0,0,0,0,0,0,0,0,0,0,0,0,365,366,361,362,0,0,0,0,0,0,0,0,0,0,0,0,0,0,
0,0,0,325,445,446,321,322,0,0,0,0,0,0,0,0,0,0,0,0,0,0,0,0,543,0,0,0,0,0,0,0,309,613,614,308,543,0,0,0,0,0,0,0,0,0,0,0,0,0,
0,0,0,365,366,614,321,322,0,0,0,0,0,0,0,0,0,0,0,0,0,0,0,0,0,0,0,0,0,0,0,0,381,613,614,386,0,0,0,0,0,0,0,0,0,0,0,0,0,0,
0,0,0,365,366,613,321,322,0,0,0,0,0,0,0,0,0,0,0,0,0,0,0,0,0,0,0,0,0,0,0,0,429,613,614,428,0,0,0,0,0,0,0,0,0,0,0,0,0,0,
0,0,0,365,366,613,321,322,0,0,0,0,0,0,0,0,0,0,0,0,0,0,0,0,0,0,0,0,0,0,0,0,325,326,321,322,0,0,0,0,0,0,0,0,0,0,0,0,0,0,
0,0,0,365,366,321,322,0,0,0,0,0,0,0,0,0,0,0,0,0,0,0,0,0,0,0,0,0,0,0,0,0,325,326,321,322,0,0,0,0,0,0,0,0,0,0,0,0,0,0,
0,0,0,365,366,321,322,0,0,0,0,0,0,0,0,0,0,0,0,0,0,0,0,0,0,0,0,0,0,0,0,0,325,326,321,322,0,0,0,0,0,0,0,0,0,0,0,0,0,0,
0,0,0,365,366,321,322,0,0,0,0,0,0,0,0,0,0,0,0,0,0,0,0,0,0,0,0,0,0,0,0,0,325,326,321,322,0,0,0,0,0,0,0,0,0,0,0,0,0,0,
0,0,0,365,366,321,322,0,0,0,0,0,0,0,0,0,0,0,0,0,0,0,0,0,0,0,0,0,0,0,0,0,325,326,321,322,0,0,0,0,0,0,0,0,0,0,0,0,0,0,
0,0,0,365,366,321,322,0,0,0,0,543,0,0,0,0,0,0,0,0,0,0,0,0,0,0,0,0,0,0,0,0,325,326,401,402,250,0,0,0,0,0,0,0,0,0,0,0,0,0,
0,0,0,365,366,246,402,0,308,0,0,0,0,0,0,0,0,0,0,0,0,0,0,0,0,0,0,0,0,0,0,0,365,366,441,321,322,0,0,0,0,0,0,0,0,0,0,0,0,0,
0,0,0,0,285,245,246,574,348,264,266,0,0,0,0,0,0,0,0,0,0,0,0,0,0,0,0,0,0,0,0,0,367,285,286,321,322,0,0,0,0,0,0,0,0,0,0,0,0,0,
0,0,0,0,0,285,245,246,574,574,348,0,0,0,0,0,0,0,0,0,0,0,0,0,0,0,0,0,0,0,0,0,0,325,326,321,322,0,0,0,0,0,0,0,0,0,0,0,0,0,
0,0,0,0,0,0,285,286,614,614,574,0,0,0,0,0,0,0,0,0,0,0,0,0,0,0,0,0,0,0,0,0,0,325,326,361,362,0,0,0,0,0,0,0,0,0,0,0,0,0,
0,0,0,0,0,0,543,464,309,613,245,246,402,0,0,0,0,0,0,0,0,0,0,0,0,0,0,0,0,0,0,0,0,365,366,246,402,250,0,0,0,0,0,0,0,0,0,0,0,0,
0,0,0,0,0,0,0,0,0,0,285,286,401,402,0,0,0,0,0,0,0,0,0,0,0,0,0,0,0,0,0,0,0,367,285,286,321,322,0,0,0,0,0,0,0,0,0,0,0,0,
0,0,0,0,0,0,0,0,0,247,248,326,241,321,322,0,0,0,0,0,0,0,0,0,0,0,0,0,0,0,0,0,0,0,325,326,361,362,0,0,0,0,0,0,0,0,0,0,0,0,
0,0,0,0,0,0,0,0,0,287,288,613,281,282,0,0,0,0,0,0,0,0,0,0,0,0,0,0,0,0,0,0,0,0,365,366,246,402,250,0,0,0,0,0,0,0,0,0,0,0,
0,0,0,0,0,0,0,0,0,365,366,613,361,362,0,0,0,0,0,0,0,0,0,0,0,0,0,0,0,0,0,0,0,0,367,285,286,321,322,0,0,0,0,0,0,0,0,0,0,0,
0,0,0,0,0,0,0,0,0,365,366,246,574,401,402,250,0,0,0,0,0,0,0,0,0,0,0,0,0,0,0,0,0,0,0,325,326,246,402,250,0,0,0,0,0,0,0,0,0,0,
0,0,0,0,0,0,0,0,0,0,285,245,246,441,442,402,250,0,0,0,0,0,0,0,0,0,0,0,0,0,0,0,0,0,0,367,285,286,246,402,0,0,0,0,0,0,0,0,0,0,
0,0,0,0,0,0,0,0,0,0,0,285,245,246,245,246,402,250,0,0,0,0,0,0,0,0,0,0,0,0,0,0,0,0,0,0,367,285,286,246,402,250,0,0,0,0,0,0,0,0,
0,0,0,0,0,0,0,0,0,0,0,0,285,286,246,286,401,402,0,0,0,0,0,0,0,0,0,0,0,0,0,0,0,0,0,0,0,367,285,286,442,402,250,0,0,0,0,0,0,0,
0,0,0,0,0,0,0,0,0,0,0,0,0,285,286,326,441,401,402,403,403,403,403,403,404,250,0,0,0,0,0,0,0,0,0,0,0,247,405,406,441,442,402,250,0,0,0,0,0,0,
0,0,0,0,0,0,0,0,0,0,0,0,0,0,365,366,246,441,442,443,443,443,443,443,444,402,403,403,403,403,403,403,404,250,0,247,403,405,445,446,613,441,442,401,402,0,0,0,0,0,
0,0,0,0,0,0,0,0,0,0,0,0,0,0,0,285,243,243,243,243,244,245,246,573,441,442,443,443,443,443,443,443,444,402,404,405,443,445,446,614,614,614,614,441,442,402,0,0,0,0,
0,0,0,0,0,0,0,0,0,0,0,0,0,0,0,367,283,283,283,283,284,285,243,244,245,246,614,574,574,573,573,574,441,442,444,445,446,573,573,573,573,574,613,614,441,442,402,405,0,0,
0,0,0,0,0,0,0,0,0,0,0,0,0,0,0,0,0,0,0,0,0,367,283,284,285,286,243,243,243,244,245,246,574,614,574,574,573,613,613,613,573,573,573,574,614,441,442,445,0,0,
0,0,0,0,0,0,0,0,0,0,0,0,0,0,0,0,0,0,0,0,0,0,363,364,367,284,283,283,283,284,285,245,246,614,574,573,613,613,573,574,574,574,574,574,573,574,614,614,0,0,
0,0,0,0,0,0,0,0,0,0,0,0,0,0,0,0,0,0,0,0,0,0,0,363,364,0,0,0,0,0,0,285,286,614,573,613,613,614,573,573,573,573,573,573,573,573,573,574,0,0,
0,0,0,0,0,0,0,0,0,0,0,0,0,0,0,0,0,0,0,0,0,0,0,0,0,0,0,0,0,0,0,0,613,613,613,613,614,574,613,613,573,574,574,574,574,574,574,574,0,0,
0,0,0,0,0,0,0,0,0,0,0,0,0,0,0,0,0,0,0,0,0,0,0,0,0,0,0,0,0,0,0,0,613,614,613,614,614,614,614,614,613,614,614,614,614,614,614,614,0,0,
0,0,0,0,0,0,0,0,0,0,0,0,0,0,0,0,0,0,0,0,0,0,0,0,0,0,0,0,0,0,0,0,0,0,0,0,0,0,0,0,0,0,0,0,0,0,0,0,0,0,
0,0,0,0,0,0,0,0,0,0,0,0,0,0,0,0,0,0,0,0,0,0,0,0,0,0,0,0,0,0,0,0,0,0,0,0,0,0,0,0,0,0,0,0,0,0,0,0,0,0
</data>
 </layer>
 <objectgroup id="5" name="Objects">
  <object id="1" name="player" x="734.681" y="733.456">
   <point/>
  </object>
  <object id="2" type="collision" x="0.612745" y="0" width="800.245" height="31.25"/>
  <object id="3" type="collision" x="768.995" y="31.25" width="31.25" height="433.211"/>
  <object id="4" type="collision" x="767.77" y="528.186" width="31.8627" height="272.059"/>
  <object id="5" type="collision" x="-1.22549" y="768.995" width="769.608" height="29.4118"/>
  <object id="6" type="collision" x="0.612745" y="608.456" width="31.25" height="156.863"/>
  <object id="7" type="collision" x="0" y="110.907" width="32.4755" height="430.76"/>
  <object id="8" type="collision" x="0" y="30.6373" width="31.8627" height="47.7941"/>
  <object id="9" type="collision" x="-1.22549" y="80.8824" width="125" height="26.348"/>
  <object id="10" type="collision" x="66.1765" y="107.843" width="74.1422" height="17.1569"/>
  <object id="11" type="collision" x="121.324" y="98.0392" width="19.6078" height="7.35294"/>
  <object id="12" type="collision" x="97.4265" y="125.613" width="25.7353" height="14.7059"/>
  <object id="13" type="collision" x="178.922" y="147.672" width="26.348" height="12.8676"/>
  <object id="14" type="collision" x="162.377" y="163.603" width="58.8235" height="25.7353"/>
  <object id="15" type="collision" x="175.245" y="191.789" width="110.907" height="47.1814"/>
  <object id="16" type="collision" x="223.039" y="180.147" width="30.0245" height="9.80392"/>
  <object id="17" type="collision" x="210.172" y="239.583" width="108.456" height="17.1569"/>
  <object id="18" type="collision" x="286.765" y="224.877" width="14.0931" height="12.2549"/>
  <object id="19" type="collision" x="242.647" y="257.353" width="121.936" height="15.3186"/>
  <object id="20" type="collision" x="259.191" y="272.672" width="154.412" height="15.3186"/>
  <object id="21" type="collision" x="289.828" y="287.99" width="141.544" height="16.5441"/>
  <object id="22" type="collision" x="354.779" y="303.309" width="167.279" height="13.4804"/>
  <object id="23" type="collision" x="450.368" y="291.054" width="71.0784" height="9.80392"/>
  <object id="24" type="collision" x="485.294" y="276.348" width="36.152" height="11.0294"/>
  <object id="25" type="collision" x="567.402" y="277.574" width="37.3775" height="11.0294"/>
  <object id="26" type="collision" x="564.338" y="291.054" width="57.598" height="11.0294"/>
  <object id="27" type="collision" x="563.725" y="303.922" width="89.4608" height="15.9314"/>
  <object id="28" type="collision" x="370.098" y="317.402" width="106.618" height="30.0245"/>
  <object id="29" type="collision" x="356.618" y="341.299" width="11.0294" height="39.2157"/>
  <object id="30" type="collision" x="367.647" y="348.039" width="76.5931" height="31.25"/>
  <object id="31" type="collision" x="444.853" y="346.814" width="17.1569" height="15.9314"/>
  <object id="32" type="collision" x="594.363" y="321.078" width="72.3039" height="14.0931"/>
  <object id="33" type="collision" x="609.681" y="335.172" width="59.4363" height="30.0245"/>
  <object id="34" type="collision" x="258.578" y="355.392" width="93.75" height="25.7353"/>
  <object id="35" type="collision" x="625.613" y="367.647" width="61.2745" height="14.0931"/>
  <object id="36" type="collision" x="640.319" y="379.902" width="45.3431" height="34.3137"/>
  <object id="37" type="collision" x="685.662" y="386.029" width="15.9314" height="28.1863"/>
  <object id="38" type="collision" x="654.412" y="415.441" width="79.6569" height="16.5441"/>
  <object id="39" type="collision" x="700.368" y="401.348" width="17.1569" height="11.6422"/>
  <object id="40" type="collision" x="673.407" y="430.147" width="75.9804" height="17.7696"/>
  <object id="41" type="collision" x="689.951" y="448.529" width="77.2059" height="16.5441"/>
  <object id="42" type="collision" x="705.882" y="465.686" width="94.9755" height="14.0931"/>
  <object id="43" type="collision" x="721.814" y="480.392" width="77.8186" height="14.7059"/>
  <object id="44" type="collision" x="754.289" y="495.711" width="44.7304" height="28.799"/>
  <object id="45" type="collision" x="737.745" y="495.098" width="13.4804" height="14.0931"/>
  <object id="46" type="collision" x="242.034" y="371.324" width="15.3186" height="11.6422"/>
  <object id="47" type="collision" x="206.495" y="382.353" width="110.907" height="15.9314"/>
  <object id="48" type="collision" x="205.27" y="398.284" width="47.7941" height="44.7304"/>
  <object id="49" type="collision" x="251.838" y="398.897" width="34.3137" height="26.9608"/>
  <object id="50" type="collision" x="286.152" y="397.672" width="15.9314" height="14.0931"/>
  <object id="51" type="collision" x="147.059" y="402.574" width="57.598" height="37.9902"/>
  <object id="52" type="collision" x="163.603" y="441.176" width="22.0588" height="17.1569"/>
  <object id="53" type="collision" x="132.966" y="417.892" width="14.7059" height="24.5098"/>
  <object id="54" type="collision" x="67.402" y="483.456" width="72.3039" height="22.6716"/>
  <object id="55" type="collision" x="66.1765" y="506.127" width="56.9853" height="14.7059"/>
  <object id="56" type="collision" x="66.1765" y="522.059" width="43.5049" height="31.8627"/>
  <object id="57" type="collision" x="37.9902" y="530.637" width="24.5098" height="58.2108"/>
  <object id="58" type="collision" x="64.951" y="552.696" width="26.348" height="19.6078"/>
  <object id="59" type="collision" x="-0.612745" y="541.667" width="42.8922" height="60.6618"/>
  <object id="60" type="collision" x="-0.612745" y="599.265" width="30.6373" height="6.7402"/>
  <object id="61" x="460.172" y="363.971" width="0.612745"/>
  <object id="62" x="-118.873" y="64.3382"/>
 </objectgroup>
</map>
